themes/gmt/src/svg/slack.svg

<svg mlns="http://www.w3.org/2000/svg"><g fill-rule="nonzero" fill="none"><path d="M21.845 2.252C21.335.68 19.635-.17 18.063.34 16.49.85 15.64 2.55 16.15 4.122l7.735 23.843a3.019 3.019 0 0 0 3.655 1.87c1.573-.468 2.55-2.168 2.04-3.698 0-.085-7.735-23.884-7.735-23.884z" fill="#E9A823"/><path d="M9.818 6.162C9.308 4.59 7.608 3.74 6.035 4.25c-1.572.51-2.423 2.21-1.913 3.783l7.736 23.842a3.019 3.019 0 0 0 3.654 1.87c1.573-.467 2.55-2.167 2.04-3.697 0-.085-7.734-23.885-7.734-23.885z" fill="#3FB991"/><path d="M31.578 22.015c1.572-.51 2.422-2.21 1.912-3.782-.51-1.573-2.21-2.423-3.783-1.913L5.866 24.055a3.019 3.019 0 0 0-1.87 3.655c.468 1.572 2.167 2.55 3.697 2.04.085 0 23.886-7.735 23.886-7.735z" fill="#E11765"/><path d="M10.838 28.73c1.572-.51 3.57-1.148 5.694-1.87-.51-1.572-1.147-3.57-1.87-5.695l-5.695 1.87 1.87 5.695z" fill="#472A49"/><path d="M22.865 24.82c2.168-.68 4.165-1.36 5.695-1.87-.51-1.572-1.147-3.57-1.87-5.695l-5.695 1.87 1.87 5.695z" fill="#CD2027"/><path d="M27.668 9.988c1.572-.51 2.422-2.21 1.912-3.783-.51-1.572-2.21-2.422-3.782-1.912l-23.8 7.734a3.019 3.019 0 0 0-1.87 3.655c.467 1.573 2.167 2.55 3.697 2.04.042 0 23.843-7.735 23.843-7.735z" fill="#71CBDC"/><path d="M6.928 16.745c1.572-.51 3.57-1.148 5.695-1.87-.68-2.168-1.36-4.165-1.87-5.695L5.1 11.05l1.828 5.695z" fill="#1D947E"/><path d="M18.955 12.835c2.168-.68 4.165-1.36 5.695-1.87-.68-2.168-1.36-4.165-1.87-5.695l-5.695 1.87 1.87 5.695z" fill="#66873A"/></g></svg>

<?xml version="1.0" encoding="UTF-8"?>
<svg width="34px" height="34px" viewBox="0 0 34 34" version="1.1" xmlns="http://www.w3.org/2000/svg" xmlns:xlink="http://www.w3.org/1999/xlink">
    <!-- Generator: Sketch 43.2 (39069) - http://www.bohemiancoding.com/sketch -->
    <title>slack</title>
    <desc>Created with Sketch.</desc>
    <defs></defs>
    <g id="Page-1" stroke="none" stroke-width="1" fill="none" fill-rule="evenodd">
        <g id="slack" fill-rule="nonzero">
            <path d="M21.845,2.252 C21.335,0.68 19.635,-0.17 18.063,0.34 C16.49,0.85 15.64,2.55 16.15,4.122 L23.885,27.965 C24.4267578,29.4483138 26.020099,30.2635116 27.54,29.835 C29.113,29.367 30.09,27.667 29.58,26.137 C29.58,26.052 21.845,2.253 21.845,2.253 L21.845,2.252 Z" id="Shape" fill="#E9A823"></path>
            <path d="M9.818,6.162 C9.308,4.59 7.608,3.74 6.035,4.25 C4.463,4.76 3.612,6.46 4.122,8.033 L11.858,31.875 C12.3997312,33.3578264 13.9924148,34.1729108 15.512,33.745 C17.085,33.278 18.062,31.578 17.552,30.048 C17.552,29.963 9.818,6.163 9.818,6.163 L9.818,6.162 Z" id="Shape" fill="#3FB991"></path>
            <path d="M31.578,22.015 C33.15,21.505 34,19.805 33.49,18.233 C32.98,16.66 31.28,15.81 29.707,16.32 L5.866,24.055 C4.3826862,24.5967578 3.56748839,26.190099 3.996,27.71 C4.464,29.282 6.163,30.26 7.693,29.75 C7.778,29.75 31.579,22.015 31.579,22.015 L31.578,22.015 Z" id="Shape" fill="#E11765"></path>
            <path d="M10.838,28.73 C12.41,28.22 14.408,27.582 16.532,26.86 C16.022,25.288 15.385,23.29 14.662,21.165 L8.967,23.035 L10.837,28.73 L10.838,28.73 Z" id="Shape" fill="#472A49"></path>
            <path d="M22.865,24.82 C25.033,24.14 27.03,23.46 28.56,22.95 C28.05,21.378 27.413,19.38 26.69,17.255 L20.995,19.125 L22.865,24.82 Z" id="Shape" fill="#CD2027"></path>
            <path d="M27.668,9.988 C29.24,9.478 30.09,7.778 29.58,6.205 C29.07,4.633 27.37,3.783 25.798,4.293 L1.998,12.027 C0.5146862,12.5687578 -0.300511609,14.162099 0.128,15.682 C0.595,17.255 2.295,18.232 3.825,17.722 C3.867,17.722 27.668,9.987 27.668,9.987 L27.668,9.988 Z" id="Shape" fill="#71CBDC"></path>
            <path d="M6.928,16.745 C8.5,16.235 10.498,15.597 12.623,14.875 C11.943,12.707 11.263,10.71 10.753,9.18 L5.1,11.05 L6.928,16.745 Z" id="Shape" fill="#1D947E"></path>
            <path d="M18.955,12.835 C21.123,12.155 23.12,11.475 24.65,10.965 C23.97,8.797 23.29,6.8 22.78,5.27 L17.085,7.14 L18.955,12.835 Z" id="Shape" fill="#66873A"></path>
        </g>
    </g>
</svg>
